X: 646
T: The collier's reel
C: anon.
O: Ireland
B: Francis O'Neill: "The Dance Music of Ireland" (1907) no. 646
R: Reel
Z: Transcribed by Frank Nordberg - http://www.musicaviva.com
F: http://www.musicaviva.com/abc/tunes/ireland/oneill-1001/oneill-1001-064
6.abc
M: C|
L: 1/8
K: Dmix
G|(3(FED) (FG) A2(AB)|cAd(B cAG)c|Add(c d2)de|fd(ec dc)AG|F(EFG) A2(AB)|c
Ad(B cAG)c|Add(c A2)A(G|EF)G(E FDD)||
g|fde(g fd)ec|Add(c Add)g|fde(g f)dec|ABcd e2(fg)|agf(a gf)eg|fde(d cA)Gc
|Add(c A2)A(G|EF)G(E FDD)|]
W:
W:
W: From Musica Viva - http://www.musicaviva.com
W: the Internet center for free sheet music downloads.


